X:20
T:Sweeney's
R:polka
Z:id:hn-polka-20
M:2/4
L:1/8
K:G
de/d/ Bd|Gd Bd|e/f/g/e/ dB|AG E2|
de/d/ Bd|Gd Bd|e/f/g/e/ dB|1 AG G2:|2 AG G>A||
|:Bd e/f/g/e/|dB AG/A/|Bd e/f/g/e/|dB A2|
Bd e/f/g/e/|dB AG|de/d/ BA|1 AG G>A:|2 AG G2||
<end>
<start>
